!!!OTL: WAHRE FREUNDSCHAFT SOLL NICHT WANKEN
!!!ARE: Europa, Mitteleuropa, Deutschland, Thueringen
!!!SCT: E0568A
!!!YEM: Copyright 1995, estate of Helmut Schaffrath.
**kern
*ICvox
*Ivox
!! Mixed meters:  3/4; 4/4
*M3/4
*k[b-]
*F:
{8a
8g
=1
4f
4f
8a
8b-
=2
8a
8g
4g}
{8f
8d
=3
4c
8f
8a
8b-
8cc
=4
4a
4r}
{8f
8f
=5
*M4/4
4.dd
8dd
4ff
8ee
8dd
=6
*M3/4
8dd
8cc
4cc
4r}
=7
{8a
8cc
=8
*M4/4
4cc
8dd
8cc
4.b-
8e
=9
2f
4r}
==
!!!AGN: Liebes - Lied, Treue, Abschied
!!!ONB: ESAC (Essen Associative Code) Database: ERK1
!!!AMT: irregular
!!!AIN: vox
!!!EED: Helmut Schaffrath
!!!EEV: 1.0
*-
